resources/svg/tape-line.svg

<svg fill="currentColor" viewBox="0 0 24 24" xmlns="http://www.w3.org/2000/svg"><path d="M10.8293 13H13.1707C13.0602 12.6872 13 12.3506 13 12C13 10.3431 14.3431 9 16 9C17.6569 9 19 10.3431 19 12C19 13.6569 17.6569 15 16 15H8C6.34315 15 5 13.6569 5 12C5 10.3431 6.34315 9 8 9C9.65685 9 11 10.3431 11 12C11 12.3506 10.9398 12.6872 10.8293 13ZM4 5V19H20V5H4ZM3 3H21C21.5523 3 22 3.44772 22 4V20C22 20.5523 21.5523 21 21 21H3C2.44772 21 2 20.5523 2 20V4C2 3.44772 2.44772 3 3 3ZM8 13C8.55228 13 9 12.5523 9 12C9 11.4477 8.55228 11 8 11C7.44772 11 7 11.4477 7 12C7 12.5523 7.44772 13 8 13ZM16 13C16.5523 13 17 12.5523 17 12C17 11.4477 16.5523 11 16 11C15.4477 11 15 11.4477 15 12C15 12.5523 15.4477 13 16 13Z"/></svg>

<svg xmlns="http://www.w3.org/2000/svg" viewBox="0 0 24 24" fill="currentColor">
    <g>
        <path fill="none" d="M0 0h24v24H0z"/>
        <path d="M10.83 13h2.34A3 3 0 1 1 16 15H8a3 3 0 1 1 2.83-2zM4 5v14h16V5H4zM3 3h18a1 1 0 0 1 1 1v16a1 1 0 0 1-1 1H3a1 1 0 0 1-1-1V4a1 1 0 0 1 1-1zm5 10a1 1 0 1 0 0-2 1 1 0 0 0 0 2zm8 0a1 1 0 1 0 0-2 1 1 0 0 0 0 2z"/>
    </g>
</svg>
